svg/factions/infested.svg

<svg xmlns="http://www.w3.org/2000/svg" width="256" height="256" viewBox="0 0 128 128">
    <path d="M64.62 9.38c7.99 15.43 19.42 28.57 29.85 42.33-4.21 2.73-8.44 5.45-12.69 8.14 1.33-1.91 2.67-3.81 4.01-5.72-6.51-6.37-12.87-12.92-19.82-18.82.08 11.07 2.98 22.08 8.71 31.57-7.06-1.54-14.41-1.54-21.51-.27 5.44-9.49 10.06-19.69 8.94-30.99-7.34 5.89-14.3 12.25-21.07 18.78 2.02 2.26 4.03 4.53 5.98 6.86-4.93-3.17-9.79-6.43-14.4-10.04 11.8-13.01 23.58-26.31 32-41.84m21.14 59.28c4.6-2.03 9.26-3.9 13.94-5.74 6.7 16.09 13.21 32.42 23.11 46.9-17.65-1.53-35.28.47-52.82 2.27.03-4.79.04-9.57.13-14.35.39 1.48 1.17 4.46 1.56 5.95 8.89-1.92 17.78-3.87 26.6-6.08-9.62-5.92-20.87-8.33-32.04-8.78 4.38-5.3 8.98-10.77 10.72-17.59 5.85 9.31 12.92 18.58 23.16 23.3-2.04-8.83-4.71-17.5-7.12-26.23-2.41.12-4.83.24-7.24.35m-58.29-4.88c5 1.75 9.93 3.74 14.82 5.81-2.67-.16-5.3-.3-7.96-.47-2.14 8.69-4.61 17.29-6.47 26.05 9.83-5.51 17.2-14.14 22.53-23.95 1.5 7.01 5.98 12.94 11.38 17.49-11.27.32-22.24 3.64-32.18 8.86 8.71 2.56 17.62 4.39 26.49 6.32.56-2.06 1.13-4.11 1.7-6.17.09 4.83.19 9.66.25 14.5-17.59-1.23-35.2-3.21-52.85-1.48 9.68-14.49 15.94-30.84 22.29-46.96m26.61 6.15c6.23-.37 12.49-.53 18.73-.11-.41 6.54-3.95 12.18-8.9 16.24-4.55-4.46-8.53-9.76-9.83-16.13"/>
</svg>

<svg width="256px" height="256px" viewBox="0 0 128 128" version="1.1" xmlns="http://www.w3.org/2000/svg"><path d=" M 64.62 9.38 C 72.61 24.81 84.04 37.95 94.47 51.71 C 90.26 54.44 86.03 57.16 81.78 59.85 C 83.11 57.94 84.45 56.04 85.79 54.13 C 79.28 47.76 72.92 41.21 65.97 35.31 C 66.05 46.38 68.95 57.39 74.68 66.88 C 67.62 65.34 60.27 65.34 53.17 66.61 C 58.61 57.12 63.23 46.92 62.11 35.62 C 54.77 41.51 47.81 47.87 41.04 54.40 C 43.06 56.66 45.07 58.93 47.02 61.26 C 42.09 58.09 37.23 54.83 32.62 51.22 C 44.42 38.21 56.20 24.91 64.62 9.38 Z" /><path d=" M 85.76 68.66 C 90.36 66.63 95.02 64.76 99.70 62.92 C 106.40 79.01 112.91 95.34 122.81 109.82 C 105.16 108.29 87.53 110.29 69.99 112.09 C 70.02 107.30 70.03 102.52 70.12 97.74 C 70.51 99.22 71.29 102.20 71.68 103.69 C 80.57 101.77 89.46 99.82 98.28 97.61 C 88.66 91.69 77.41 89.28 66.24 88.83 C 70.62 83.53 75.22 78.06 76.96 71.24 C 82.81 80.55 89.88 89.82 100.12 94.54 C 98.08 85.71 95.41 77.04 93.00 68.31 C 90.59 68.43 88.17 68.55 85.76 68.66 Z" /><path d=" M 27.47 63.78 C 32.47 65.53 37.40 67.52 42.29 69.59 C 39.62 69.43 36.99 69.29 34.33 69.12 C 32.19 77.81 29.72 86.41 27.86 95.17 C 37.69 89.66 45.06 81.03 50.39 71.22 C 51.89 78.23 56.37 84.16 61.77 88.71 C 50.50 89.03 39.53 92.35 29.59 97.57 C 38.30 100.13 47.21 101.96 56.08 103.89 C 56.64 101.83 57.21 99.78 57.78 97.72 C 57.87 102.55 57.97 107.38 58.03 112.22 C 40.44 110.99 22.83 109.01 5.18 110.74 C 14.86 96.25 21.12 79.90 27.47 63.78 Z" /><path d=" M 54.08 69.93 C 60.31 69.56 66.57 69.40 72.81 69.82 C 72.40 76.36 68.86 82.00 63.91 86.06 C 59.36 81.60 55.38 76.30 54.08 69.93 Z" /></svg>
